F1 Grump/assets/track outlines/Spa-Francorchamps - White_1.svg

<svg width="4178" height="2751" viewBox="0 0 4178 2751" fill="none" xmlns="http://www.w3.org/2000/svg">
<g clip-path="url(#clip0_13_827)">
<path d="M3850.26 2690.59C3789.64 2692.68 3708.14 2678.33 3664.55 2668.2C3596.17 2652.2 3490.94 2610.07 3419.74 2570.06C3352.41 2532.23 3159.1 2387.63 3110.02 2334.85C3073.31 2295.37 3032.02 2239.85 2992.09 2186.19C2966.59 2151.88 2940.2 2116.4 2916.19 2086.78C2898.14 2064.53 2881.97 2042.6 2866.34 2021.4C2831.93 1974.71 2799.43 1930.62 2754.88 1894.93C2686.25 1839.93 2639.88 1809.69 2561.98 1786.39C2504.06 1769.08 2436.38 1751.88 2376.67 1736.71C2341.03 1727.65 2308.51 1719.38 2282.96 1712.34C2203.56 1690.41 2148.26 1682.96 2118.77 1690.34C2086.34 1698.34 2014.36 1742.4 1961.77 1774.57C1932.4 1792.57 1904.66 1809.49 1883.4 1820.85C1855.83 1835.54 1825.4 1853.51 1793.28 1872.56C1697.28 1929.4 1577.83 2000.12 1452.28 2028.92C1408.11 2039.07 1350.52 2055.24 1294.82 2070.92C1153.82 2110.53 1088.49 2127.31 1055.56 2122.26C1014.01 2115.82 1006.46 2071.98 1000.42 2036.74C999.421 2030.59 997.961 2022.43 996.421 2014.97C902.251 2084.6 706.921 2251.53 533.751 2399.5C397.861 2515.63 269.531 2625.31 200.751 2679.01C196.201 2682.57 190.911 2687.01 185.061 2692.01C144.001 2726.53 81.9312 2778.7 26.8712 2747.85C18.0612 2742.9 6.58122 2732.85 1.87122 2712.95C-18.5388 2627.32 134.931 2211.5 225.501 2076.72C285.421 1987.54 368.501 1888.64 441.851 1801.38C460.321 1779.38 478.111 1758.2 494.661 1738.2C518.121 1709.88 544.541 1681.1 570.101 1653.2C621.641 1597.05 674.931 1538.99 697.221 1491.2C699.891 1485.44 703.071 1478.03 706.771 1469.48C726.611 1423.37 759.771 1346.19 807.771 1299.3C842.771 1265.12 898.701 1244.15 952.831 1223.9C991.211 1209.51 1030.9 1194.66 1058.24 1176.73C1099.85 1149.43 1132.18 1118.5 1166.41 1085.73C1184.41 1068.47 1203.08 1050.6 1224.02 1032.33C1246.31 1012.89 1275.18 985.44 1308.63 953.63C1399.49 867.25 1512.63 759.73 1592.16 719.43C1850.42 588.6 2400.94 326.43 2765.25 152.92C2862.17 106.74 2945.34 67.15 3005.32 38.42L3010.72 35.83C3050.43 16.73 3104.79 -9.50998 3153.62 3.36002C3183.81 11.29 3206.86 34.16 3229.13 56.29C3250.36 77.29 3272.31 99.13 3292.81 99.46C3312.16 100.03 3360.38 77.28 3399 59.19C3487 17.89 3578.07 -24.75 3636.4 23.05C3749.1 115.3 4032.58 402.49 4120.93 504.47C4163.18 553.2 4152.88 663.41 4101.93 707.81C4042.93 759.16 3954.35 745.15 3913.04 715.29C3882.93 693.54 3840.76 644.67 3796.12 592.96C3761.69 553.07 3705.62 488.1 3682.03 472.52C3655.26 481.42 3578.19 520.38 3515.23 552.18C3414.65 603.03 3300.67 660.63 3211.74 694.33C3159.14 714.26 3101.61 734.74 3045.97 754.52C2927.87 796.52 2805.73 840.02 2738.42 875.88C2683.26 905.27 2676.35 945.23 2671.51 1007.51C2666.78 1068.78 2683.62 1178.51 2713.29 1233.72C2741.85 1286.87 2793.71 1332.49 2848.64 1352.78C2944.64 1388.25 3164.16 1431.64 3324.44 1463.32C3373.24 1472.95 3417.65 1481.76 3453.44 1489.24C3520.32 1503.24 3609.1 1530.24 3652.06 1578.96C3711.72 1646.65 3686.92 1730.02 3666.99 1797.02C3652.12 1847.07 3637.99 1894.37 3655.33 1928.87C3679.17 1976.52 3807.65 2025.87 3910.89 2065.48C4036.89 2113.86 4145.63 2155.61 4173.81 2219.61C4208.02 2297.41 4029.56 2599.02 4027.7 2601.96C3987.8 2665.29 3909.7 2683.33 3877.92 2688.16C3868.76 2689.47 3859.53 2690.26 3850.27 2690.53M2136.27 1604.84C2190.78 1602.97 2256.54 1618.84 2305.04 1632.22C2330.14 1639.14 2362.11 1647.22 2397.14 1656.16C2457.63 1671.55 2526.14 1688.96 2585.78 1706.79C2676.32 1733.85 2731.27 1769.53 2806.78 1830.07C2859.78 1872.54 2895.45 1920.88 2933.18 1972.07C2948.25 1992.52 2963.85 2013.68 2980.68 2034.44C3005.78 2065.44 3032.68 2101.58 3058.68 2136.58C3097.26 2188.46 3137.16 2242.09 3170.79 2278.23C3214.05 2324.78 3400.19 2463.79 3460.36 2497.6C3524.61 2533.71 3622.57 2573.1 3683.36 2587.28C3741.91 2600.88 3825.58 2612.13 3865.41 2606.05C3898.31 2601.05 3939.74 2585.75 3957.41 2557.69C4006.41 2479.92 4094.76 2293.91 4096.13 2250.04C4076.33 2217.99 3963.88 2174.82 3881.13 2143.04C3746.5 2091.33 3619.37 2042.52 3581.08 1966.04C3549.08 1902.17 3569.44 1833.72 3587.39 1773.34C3607.01 1707.42 3617.6 1665.42 3589.77 1633.83C3568.95 1610.23 3510.19 1585.95 3436.4 1570.49C3400.9 1563.06 3356.83 1554.34 3308.4 1544.76C3136.29 1510.76 2922.12 1468.42 2819.91 1430.67C2745.68 1403.24 2678.49 1344.3 2640.21 1273C2602.31 1202.53 2583.03 1075.47 2588.8 1001.08C2593.28 943.08 2600.06 855.52 2699.44 802.58C2772.16 763.82 2891.66 721.3 3018.2 676.28C3073.44 656.61 3130.56 636.28 3182.36 616.66C3267.17 584.52 3383.99 525.49 3477.84 478.06C3620.72 405.83 3659.52 387.53 3685.84 388.06C3725.95 388.8 3765.17 429.94 3859.01 538.67C3896.73 582.37 3939.48 631.89 3961.7 647.97C3975.2 657.73 4020.62 668.52 4047.39 645.17C4065.06 629.78 4069.96 572.41 4058.21 558.84C3972 459.4 3690.27 174.5 3583.81 87.35C3565.89 72.74 3473.66 115.96 3434.24 134.44C3378.37 160.63 3329.95 183.04 3291.41 182.56C3237.52 181.66 3200.41 144.84 3170.62 115.26C3157.5 102.26 3141.14 85.99 3132.5 83.73C3113.22 78.73 3070.01 99.51 3046.74 110.73L3041.19 113.4C2981.15 142.12 2898 181.76 2801 228C2437 401.26 1887 663.19 1629.67 793.58C1560.98 828.36 1448.19 935.58 1365.84 1013.89C1331.72 1046.33 1302.25 1074.34 1278.64 1094.96C1259.13 1111.96 1241.17 1129.16 1223.81 1145.79C1188.39 1179.68 1151.75 1214.79 1103.81 1246.21C1068.73 1269.21 1024.62 1285.74 981.981 1301.7C935.901 1318.95 888.291 1336.77 865.841 1358.7C829.611 1394.14 800.451 1461.86 783.041 1502.35C778.961 1511.77 775.451 1519.95 772.491 1526.29C744.761 1585.74 687.081 1648.6 631.281 1709.4C606.431 1736.47 580.731 1764.4 558.621 1791.16C541.961 1811.29 524.031 1832.64 505.411 1854.78C433.411 1940.45 351.841 2037.55 294.411 2123.01C214.411 2242.06 102.821 2557.13 84.8312 2664.36C101.721 2653.56 121.921 2636.54 131.581 2628.41C138.301 2622.77 144.411 2617.64 149.651 2613.54C216.921 2560.97 344.591 2451.85 479.771 2336.34C670.391 2173.44 867.511 2005 959.421 1939.12C990.531 1916.84 1015.3 1919.63 1030.59 1925.92C1068.31 1941.4 1076.05 1986.46 1082.27 2022.67C1083.1 2027.45 1084.1 2033.31 1085.16 2038.73C1124.66 2032.44 1211.56 2008.02 1272.36 1990.93C1329 1975.02 1387.58 1958.56 1433.7 1947.93C1546.7 1922.02 1655.25 1857.75 1751.02 1801.06C1784.02 1781.52 1815.15 1763.06 1844.33 1747.5C1863.44 1737.32 1890.17 1720.97 1918.45 1703.67C1985.05 1662.92 2053.91 1620.79 2098.8 1609.67C2111.09 1606.76 2123.64 1605.15 2136.26 1604.85" fill="white"/>
</g>
<defs>
<clipPath id="clip0_13_827">
<rect width="4178" height="2751" fill="white"/>
</clipPath>
</defs>
</svg>

<svg xmlns="http://www.w3.org/2000/svg" viewBox="0 0 4178.15 3430.86"><defs><style>.cls-1{fill:#fff;}</style></defs><title>Spa-Francorchamps - White_1</title><g id="Layer_2" data-name="Layer 2"><g id="Layer_1-2" data-name="Layer 1"><path class="cls-1" d="M114.81,3166.41q-61.5,0-61.5,46.33,0,25.83,14.15,35.46t57.4,19.27q43.24,9.65,61.29,25t18,50.64q0,87.33-90.61,87.33-29.94,0-75-7l-14.76-2.05,3.28-26.24q55.75,7.38,84.87,7.38,60.67,0,60.68-57,0-23-13.33-33t-49.81-17q-48-10.24-68.06-26.45t-20.09-54.32q0-76.26,91.43-76.26,29.92,0,71.75,6.15l13.94,2.05-2.87,26.65Q138.58,3166.41,114.81,3166.41Z"/><path class="cls-1" d="M362.45,3331.23H290.29v95.53H258.72V3143H362.45q46.32,0,68.47,22.55t22.14,68.88Q453.06,3331.24,362.45,3331.23Zm-72.16-27.88H362q58.62,0,58.63-68.88,0-32.8-13.94-48.18T362,3170.92H290.29Z"/><path class="cls-1" d="M464.12,3426.76,542,3143h68.88l77.89,283.72H657.65l-20.5-73H515.79l-20.5,73ZM565.8,3170.1l-43,155.39H630.17l-43-155.39Z"/><path class="cls-1" d="M722.42,3328.36v-28.7H846.66v28.7Z"/><path class="cls-1" d="M909,3426.76V3143h169.74v27.88H940.54v110.7h116.85v27.88H940.54v117.26Z"/><path class="cls-1" d="M1156.19,3318.11v108.65h-31.57V3143h105q45.11,0,67.86,20.91t22.75,65.19q0,65.59-52.07,82.41l54.53,115.21H1287.8l-51.25-108.65Zm73.8-27.88q57.81,0,57.81-59.66t-58.22-59.65h-73.39v119.31Z"/><path class="cls-1" d="M1349.31,3426.76l77.9-283.72h68.88l77.9,283.72h-31.16l-20.5-73H1401l-20.5,73ZM1451,3170.1l-43,155.39h107.42l-43-155.39Z"/><path class="cls-1" d="M1618.67,3426.76V3143h59l108.66,255.84H1795V3143h31.15v283.72h-57.8L1658,3170.92h-7.79v255.84Z"/><path class="cls-1" d="M2067.21,3422.25q-42.23,8.61-75.85,8.61t-54.32-9.23a67.93,67.93,0,0,1-32-28.7q-11.28-19.47-15.58-44.69t-4.31-62.93q0-37.72,4.31-63.35t15.58-45.3a66.73,66.73,0,0,1,31.77-28.7q20.51-9,53.3-9t77.08,9l-1.23,26.65q-41.42-7.38-73.8-7.38-45.11,0-59.65,26.85T1918,3285.72q0,32.39,2.67,52.07a114.09,114.09,0,0,0,10.45,35.46q7.79,15.8,22.76,22.55t43.87,6.77q28.9,0,68.26-7.38Z"/><path class="cls-1" d="M2327.15,3287q0,75.86-24.19,109.88t-87.94,34q-63.76,0-87.95-34.85t-24.19-109.68q0-74.82,24.6-111.11t87.33-36.28q62.73,0,87.54,36.08T2327.15,3287Zm-191.88-.82q0,62.32,16.4,89.58T2215,3403q46.93,0,63.14-26.65t16.19-89.38q0-62.73-16.81-91.43t-62.93-28.7q-46.12,0-62.73,28.49T2135.27,3286.13Z"/><path class="cls-1" d="M2416.53,3318.11v108.65H2385V3143h105q45.1,0,67.86,20.91t22.75,65.19q0,65.59-52.07,82.41L2583,3426.76h-34.85l-51.25-108.65Zm73.8-27.88q57.81,0,57.81-59.66t-58.22-59.65h-73.39v119.31Z"/><path class="cls-1" d="M2808.9,3422.25q-42.24,8.61-75.85,8.61t-54.33-9.23a68,68,0,0,1-32-28.7q-11.28-19.47-15.58-44.69t-4.3-62.93q0-37.72,4.3-63.35t15.58-45.3a66.79,66.79,0,0,1,31.78-28.7q20.49-9,53.3-9t77.08,9l-1.23,26.65q-41.41-7.38-73.8-7.38-45.1,0-59.66,26.85t-14.55,91.64q0,32.39,2.66,52.07a114.1,114.1,0,0,0,10.46,35.46q7.78,15.8,22.75,22.55t43.87,6.77q28.91,0,68.27-7.38Z"/><path class="cls-1" d="M3036.45,3426.76V3298.43H2892.12v128.33h-31.57V3143h31.57v127.1h144.33V3143h31.16v283.72Z"/><path class="cls-1" d="M3112.29,3426.76l77.9-283.72h68.88l77.9,283.72h-31.16l-20.5-73H3164l-20.5,73ZM3214,3170.1l-43,155.39h107.42l-43.05-155.39Z"/><path class="cls-1" d="M3381.66,3426.76V3143h57L3519,3382.89,3599.37,3143h57v283.72h-31.57v-250.1h-5.74l-82.41,239.85h-35.26L3419,3176.66h-5.74v250.1Z"/><path class="cls-1" d="M3829.79,3331.23h-72.16v95.53h-31.57V3143h103.73q46.32,0,68.47,22.55t22.14,68.88Q3920.4,3331.24,3829.79,3331.23Zm-72.16-27.88h71.75q58.62,0,58.63-68.88,0-32.8-13.94-48.18t-44.69-15.37h-71.75Z"/><path class="cls-1" d="M4047.49,3166.41q-61.5,0-61.5,46.33,0,25.83,14.15,35.46t57.4,19.27q43.24,9.65,61.29,25t18,50.64q0,87.33-90.61,87.33-29.93,0-75-7l-14.76-2.05,3.28-26.24q55.76,7.38,84.87,7.38,60.68,0,60.68-57,0-23-13.32-33t-49.82-17q-48-10.24-68.06-26.45T3954,3214.79q0-76.26,91.43-76.26,29.92,0,71.75,6.15l13.94,2.05-2.87,26.65Q4071.27,3166.41,4047.49,3166.41Z"/><path class="cls-1" d="M3850.26,2690.59c-60.62,2.09-142.12-12.26-185.71-22.39-68.38-16-173.61-58.13-244.81-98.14-67.33-37.83-260.64-182.43-309.72-235.21-36.71-39.48-78-95-117.93-148.66-25.5-34.31-51.89-69.79-75.9-99.41-18.05-22.25-34.22-44.18-49.85-65.38-34.41-46.69-66.91-90.78-111.46-126.47-68.63-55-115-85.24-192.9-108.54-57.92-17.31-125.6-34.51-185.31-49.68-35.64-9.06-68.16-17.33-93.71-24.37-79.4-21.93-134.7-29.38-164.19-22-32.43,8-104.41,52.06-157,84.23-29.37,18-57.11,34.92-78.37,46.28-27.57,14.69-58,32.66-90.12,51.71-96,56.84-215.45,127.56-341,156.36-44.17,10.15-101.76,26.32-157.46,42-141,39.61-206.33,56.39-239.26,51.34-41.55-6.44-49.1-50.28-55.14-85.52-1-6.15-2.46-14.31-4-21.77-94.17,69.63-289.5,236.56-462.67,384.53-135.89,116.13-264.22,225.81-333,279.51-4.55,3.56-9.84,8-15.69,13C144,2726.53,81.93,2778.7,26.87,2747.85c-8.81-4.95-20.29-15-25-34.9-20.41-85.63,133.06-501.45,223.63-636.23,59.92-89.18,143-188.08,216.35-275.34,18.47-22,36.26-43.18,52.81-63.18,23.46-28.32,49.88-57.1,75.44-85,51.54-56.15,104.83-114.21,127.12-162,2.67-5.76,5.85-13.17,9.55-21.72,19.84-46.11,53-123.29,101-170.18,35-34.18,90.93-55.15,145.06-75.4,38.38-14.39,78.07-29.24,105.41-47.17,41.61-27.3,73.94-58.23,108.17-91,18-17.26,36.67-35.13,57.61-53.4,22.29-19.44,51.16-46.89,84.61-78.7,90.86-86.38,204-193.9,283.53-234.2,258.26-130.83,808.78-393,1173.09-566.51,96.92-46.18,180.09-85.77,240.07-114.5l5.4-2.59c39.71-19.1,94.07-45.34,142.9-32.47,30.19,7.93,53.24,30.8,75.51,52.93,21.23,21,43.18,42.84,63.68,43.17,19.35.57,67.57-22.18,106.19-40.27,88-41.3,179.07-83.94,237.4-36.14,112.7,92.25,396.18,379.44,484.53,481.42,42.25,48.73,31.95,158.94-19,203.34-59,51.35-147.58,37.34-188.89,7.48-30.11-21.75-72.28-70.62-116.92-122.33-34.43-39.89-90.5-104.86-114.09-120.44-26.77,8.9-103.84,47.86-166.8,79.66-100.58,50.85-214.56,108.45-303.49,142.15-52.6,19.93-110.13,40.41-165.77,60.19-118.1,42-240.24,85.5-307.55,121.36-55.16,29.39-62.07,69.35-66.91,131.63-4.73,61.27,12.11,171,41.78,226.21,28.56,53.15,80.42,98.77,135.35,119.06,96,35.47,315.52,78.86,475.8,110.54,48.8,9.63,93.21,18.44,129,25.92,66.88,14,155.66,41,198.62,89.72,59.66,67.69,34.86,151.06,14.93,218.06-14.87,50.05-29,97.35-11.66,131.85,23.84,47.65,152.32,97,255.56,136.61,126,48.38,234.74,90.13,262.92,154.13,34.21,77.8-144.25,379.41-146.11,382.35-39.9,63.33-118,81.37-149.78,86.2a244.17,244.17,0,0,1-27.65,2.37m-1714-1085.69c54.51-1.87,120.27,14,168.77,27.38,25.1,6.92,57.07,15,92.1,23.94,60.49,15.39,129,32.8,188.64,50.63,90.54,27.06,145.49,62.74,221,123.28,53,42.47,88.67,90.81,126.4,142,15.07,20.45,30.67,41.61,47.5,62.37,25.1,31,52,67.14,78,102.14,38.58,51.88,78.48,105.51,112.11,141.65,43.26,46.55,229.4,185.56,289.57,219.37,64.25,36.11,162.21,75.5,223,89.68,58.55,13.6,142.22,24.85,182.05,18.77,32.9-5,74.33-20.3,92-48.36,49-77.77,137.35-263.78,138.72-307.65-19.8-32.05-132.25-75.22-215-107-134.63-51.71-261.76-100.52-300.05-177-32-63.87-11.64-132.32,6.31-192.7,19.62-65.92,30.21-107.92,2.38-139.51-20.82-23.6-79.58-47.88-153.37-63.34-35.5-7.43-79.57-16.15-128-25.73-172.11-34-386.28-76.34-488.49-114.09-74.23-27.43-141.42-86.37-179.7-157.67-37.9-70.47-57.18-197.53-51.41-271.92,4.48-58,11.26-145.56,110.64-198.5,72.72-38.76,192.22-81.28,318.76-126.3,55.24-19.67,112.36-40,164.16-59.62,84.81-32.14,201.63-91.17,295.48-138.6,142.88-72.23,181.68-90.53,208-90,40.11.74,79.33,41.88,173.17,150.61,37.72,43.7,80.47,93.22,102.69,109.3,13.5,9.76,58.92,20.55,85.69-2.8,17.67-15.39,22.57-72.76,10.82-86.33C3972,459.4,3690.27,174.5,3583.81,87.35c-17.92-14.61-110.15,28.61-149.57,47.09-55.87,26.19-104.29,48.6-142.83,48.12-53.89-.9-91-37.72-120.79-67.3-13.12-13-29.48-29.27-38.12-31.53-19.28-5-62.49,15.78-85.76,27l-5.55,2.67C2981.15,142.12,2898,181.76,2801,228,2437,401.26,1887,663.19,1629.67,793.58c-68.69,34.78-181.48,142-263.83,220.31-34.12,32.44-63.59,60.45-87.2,81.07-19.51,17-37.47,34.2-54.83,50.83-35.42,33.89-72.06,69-120,100.42-35.08,23-79.19,39.53-121.83,55.49-46.08,17.25-93.69,35.07-116.14,57-36.23,35.44-65.39,103.16-82.8,143.65-4.08,9.42-7.59,17.6-10.55,23.94-27.73,59.45-85.41,122.31-141.21,183.11-24.85,27.07-50.55,55-72.66,81.76-16.66,20.13-34.59,41.48-53.21,63.62-72,85.67-153.57,182.77-211,268.23-80,119.05-191.59,434.12-209.58,541.35,16.89-10.8,37.09-27.82,46.75-35.95,6.72-5.64,12.83-10.77,18.07-14.87,67.27-52.57,194.94-161.69,330.12-277.2C670.39,2173.44,867.51,2005,959.42,1939.12c31.11-22.28,55.88-19.49,71.17-13.2,37.72,15.48,45.46,60.54,51.68,96.75.83,4.78,1.83,10.64,2.89,16.06,39.5-6.29,126.4-30.71,187.2-47.8,56.64-15.91,115.22-32.37,161.34-43,113-25.91,221.55-90.18,317.32-146.87,33-19.54,64.13-38,93.31-53.56,19.11-10.18,45.84-26.53,74.12-43.83,66.6-40.75,135.46-82.88,180.35-94a181.41,181.41,0,0,1,37.46-4.82"/></g></g></svg>
